X:1
T:Flora wilt thou torment
T:Thomas Morley
T:Source : First book of canzonets to two voices---London---T.Este---1595. Editor : André Vierendeels (20/11/16).
T:Notes : Original clefs : G2, G2 Editorial accidentals above the staff Original note values have been halved in 3-beat measures
T:Flora wilt thou torment mee
T:©
T:©
T:©
T:©
C:Thomas Morley
Z:©
%%score [ 1 2 ]
L:1/8
Q:1/4=98
M:4/4
K:C
V:1 treble nm="Soprano 1" snm="S 1"
V:2 treble nm="Soprano 2" snm="S 2"
V:1
 G4 G2 A2 | B2 G2 c4 | B2 d2 c2 B2- | Bc d2 ^c4 | d8 | B4 B2 c2 | d2 B2 e4 | d2 D2 E2 G2- | %8
w: Flo- ra, wilt|thou tor- ment|mee, and yet must|_ I con- tent|mee,|Flo- ra, wilt|thou tor- ment|mee, and yet must|
 GA B2 A4 | D2 G2 D2 F2 | E2 G2 G2 ^F2 | G2 g2 c2 e2 | d2 f2 e4 | d2 B2 c3 B | A2 G2 ^F4 | %15
w: _ I con- tent|mee, and shall I|have no plea- *|sure, and shall I|have no plea-|sure, of that thy|beau- ties trea-|
 G4 z2 B2 | d4 z2 d2 | B3 A G2 d2 | g3 f e2 d2 | ^c2 d4 c2 | d4 z2 d2 | B3 A G2 G2 | c3 B A2 G2 | %23
w: sure, lo|then, lo|then I dye and|dy- ing thus com-|plaine _ _|mee, and|dy- ing thus com-|plaine _ _ _|
 ^F2 G2 A4 | B8 |[M:3/4] d4 c2 | B3 B A2 | G4 z2 |[M:4/4] z2 B2 c2 G2 | A2 d4 ^c2 | d4 z2 e2 | %31
w: _ _ _|mee,|Flo- ra|gen- tile and|faire,|a- las hath|slaine _ _|mee, a-|
 f2 d2 ^c4 | d4 z2 A2 | _B2 G4 ^F2 | G4 z2 B2 | c2 G2 A4 | D4 A2 c2- | c2 B2 A4 | B8 | %39
w: las hath slaine|mee, a-|las hath slaine|mee, a-|las hath slaine|mee, a- las|_ hath slaine|mee,|
[M:3/4] d4 c2 | B3 B A2 | G4 z2 |[M:4/4] z2 B2 c2 G2 | A2 d4 ^c2 | d4 z2 e2 | f2 d2 ^c4 | %46
w: Flo- ra|gen- tile and|faire,|a- las hath|slaine- * *|mee, a-|las hath slaine|
 d4 z2 A2 | _B2 G4 ^F2 | G4 z2 B2 | c2 G2 A4 | D4 A2 c2- | c2 B2 A4 | G8 |] %53
w: mee, a-|las hath slaine|mee, a-|las hath slaine|mee, a- las|_ hath slaine|mee.|
V:2
 z8 | z8 | z2 D2 E2 G2- | GA B2 A4 | D8 | G4 G2 A2 | B2 G2 c4 | B2 d2 c2 B2- | Bc d2 ^c4 | %9
w: ||And yet must|_ I con- tent|mee,|Flo- ra wilt|thou tor- ment|mee, and yet must|_ I con- tent|
 d4 z2 d2 | G2 B2 A2 c2 | B3 G AB c2- | c2 B2 c4 | z2 d2 e3 d | c2 B2 A4 | B2 B2 d4 | z2 B2 d4 | %17
w: mee, and|shall I have no|plea- * * * *|* * sure,|of that thy|beau- ties trea-|sure, lo then,|lo then,|
 z2 d2 B3 A | G2 G2 c3 B | A2 G2 A4 | D2 d2 B3 A | G2 d2 g3 f | e2 G2 c3 B | A2 G2 G2 ^F2 | G8 | %25
w: lo then I|dye and dy- ing|thus com- plaine|mee, lo then I|dye, lo then I|dye and dy- ing|thus com- plaine _|mee|
[M:3/4] z6 | d4 c2 | B3 B A2 |[M:4/4] G4 z2 B2 | c2 G2 A4 | D2 F2 E4 | D4 z2 e2 | f2 d2 ^c4 | %33
w: |Flo- ra|gen- tile and|faire, a-|las hath slaine|mee, hath slaine|mee, a-|las hath slaine|
 d2 _B2 A4 |"^-natural""^-natural" B2 B2 c2 G2 | A2 d4 ^c2 | d2 D2 F2 A2- | AG G4 ^F2 | G8 | %39
w: mee, hath slaine|mee, a- las hath|slaine _ _|mee, a- las hath|_ _ slaine _|mee,|
[M:3/4] z6 | d4 c2 | B3 B A2 |[M:4/4] G4 z2 B2 | c2 G2 A4 | D2 F2 E4 | D4 z2 e2 | f2 d2 ^c4 | %47
w: |Flo- ra|gen- tile and|faire, a-|las hath slaine|mee, hath slaine|mee, a-|las hath slaine|
 d2 _B2 A4 |"^-natural""^-natural" B2 B2 c2 G2 | A2 d4 ^c2 | d2 D2 F2 A2- | AG G4 ^F2 | G8 |] %53
w: mee, hath slaine|mee, a- las hath|slaine- * *|mee, a- las hath|_ _ slaine _|mee.|

